svgs/sharp-solid/toggle-large-off.svg

<svg xmlns="http://www.w3.org/2000/svg" viewBox="0 0 576 512"><!--! Font Awesome Pro 6.6.0 by @fontawesome - https://fontawesome.com License - https://fontawesome.com/license (Commercial License) Copyright 2024 Fonticons, Inc. --><path d="M320 128L64 128l0 256 256 0 0-256zm64 320l-64 0L64 448 0 448l0-64L0 128 0 64l64 0 256 0 64 0 128 0 64 0 0 64 0 256 0 64-64 0-128 0zm0-320l0 256 128 0 0-256-128 0z"/></svg>

<svg xmlns="http://www.w3.org/2000/svg" viewBox="0 0 576 512"><!--! Font Awesome Pro 6.4.0 by @fontawesome - https://fontawesome.com License - https://fontawesome.com/license (Commercial License) Copyright 2023 Fonticons, Inc. --><path d="M320 128H64V384H320V128zm64 320H320 64 0V384 128 64H64 320h64H512h64v64V384v64H512 384zm0-320V384H512V128H384z"/></svg>
